X:25
T:Lewie Gordon
C:arr. Carlo Minasi
M:C
L:1/8
B:Chappell's One Hundred Scotch Melodies
B:Arranged for the Concertina by Carlo Minasi
Q:"Allegretto  "1/4=140
Z:Peter Dunk 2012
K:C
!p!LG>AB>A GE A2|(LG>AB>c) ([dB][ec] [g2B2])|\
Le>d(gB) (c/B/A/G/) A2|LG>AB>A GE [G2D2B,2]|
LG>AB>A GE L[A2F2D2]|(LG>AB>c) ([dB][ec] L[g2B2])|\
Le>dgB (c/B/A/G/) [A2F2D2]\
|LG>A"_rall."B>A G[EC] [G2B,2]||

